Papirus/22x22/apps/uplink.svg

<svg xmlns="http://www.w3.org/2000/svg" width="22" height="22" version="1.1">
 <path style="opacity:0.2" d="M 10.000479,3.5 C 8.6645419,3.5 7.6930116,4.5125637 7.318838,5.7441406 6.8185234,5.1208893 5.9714361,4.5 5.0004786,4.5 h -1 C 2.8338119,4.5 1.69993,5.3784409 1.3364161,6.1054688 0.97290216,6.8324966 1.0004786,7.5 1.0004786,7.5 v 9 c 0,0 -0.027576,0.667503 0.3359375,1.394531 C 1.69993,18.621559 2.8338119,19.5 4.0004786,19.5 H 17.000479 c 1.666667,0 3.050549,-1.128441 3.539062,-2.105469 C 21.028055,16.417503 21.000479,15.5 21.000479,15.5 v -8 c 0,0 0.02758,-0.6675034 -0.335938,-1.3945312 C 20.301028,5.3784409 19.167146,4.5 18.000479,4.5 h -3.84375 c -0.55234,-0.5968255 -1.300259,-1 -2.15625,-1 z"/>
 <path style="fill:#bfbfbf" d="M 10.000479,3 C 8.6645419,3 7.6930116,4.0125637 7.318838,5.2441406 6.8185234,4.6208893 5.9714361,4 5.0004786,4 h -1 C 2.8338119,4 1.69993,4.8784409 1.3364161,5.6054688 0.97290216,6.3324966 1.0004786,7 1.0004786,7 v 9 c 0,0 -0.027576,0.667503 0.3359375,1.394531 C 1.69993,18.121559 2.8338119,19 4.0004786,19 H 17.000479 c 1.666667,0 3.050549,-1.128441 3.539062,-2.105469 C 21.028055,15.917503 21.000479,15 21.000479,15 V 7 c 0,0 0.02758,-0.6675034 -0.335938,-1.3945312 C 20.301028,4.8784409 19.167146,4 18.000479,4 h -3.84375 C 13.604389,3.4031745 12.85647,3 12.000479,3 Z"/>
 <path style="opacity:0.1" d="m 10.000479,5.5 c -0.5540004,0 -1.0000004,0.446 -1.0000004,1 v 1 c 0,0.554 0.446,1 1.0000004,1 h 2 c 0.554,0 1,-0.446 1,-1 v -1 c 0,-0.554 -0.446,-1 -1,-1 z m -6.0000004,1 c -1,0 -1,1 -1,1 v 9 c 0,0 0,1 1,1 H 17.000479 c 2,0 2,-2 2,-2 v -8 c 0,0 0,-1 -1,-1 h -2 v 6 c 0,2 -2,2 -2,2 H 7.0004786 c -1,0 -1,-1 -1,-1 v -6 c 0,0 0,-1 -1,-1 z"/>
 <path style="fill:#2e56b2" d="M 10.000479,5 C 9.4464786,5 9.0004786,5.446 9.0004786,6 v 1 c 0,0.554 0.446,1 1.0000004,1 h 2 c 0.554,0 1,-0.446 1,-1 V 6 c 0,-0.554 -0.446,-1 -1,-1 z M 4.0004786,6 c -1,0 -1,1 -1,1 v 9 c 0,0 0,1 1,1 H 17.000479 c 2,0 2,-2 2,-2 V 7 c 0,0 0,-1 -1,-1 h -2 v 6 c 0,2 -2,2 -2,2 H 7.0004786 c -1,0 -1,-1 -1,-1 V 7 c 0,0 0,-1 -1,-1 z"/>
 <path style="opacity:0.2;fill:#ffffff" d="M 10.000479,3 C 8.6645419,3 7.6930116,4.0125637 7.318838,5.2441406 6.8185234,4.6208893 5.9714361,4 5.0004786,4 h -1 C 2.8338119,4 1.69993,4.8784409 1.3364161,5.6054688 0.97290216,6.3324966 1.0004786,7 1.0004786,7 v 0.5 c 0,0 -0.0275765,-0.6675034 0.3359375,-1.3945312 C 1.6999291,5.3784409 2.8338116,4.5 4.0004786,4.5 h 1 C 5.9714366,4.5 6.818524,5.1208893 7.318838,5.7441406 7.693012,4.5125637 8.6645416,3.5 10.000479,3.5 h 2 c 0.855991,0 1.60391,0.4031745 2.15625,1 h 3.84375 c 1.166667,0 2.300549,0.8784409 2.664062,1.6054688 C 21.028059,6.8324966 21.000479,7.5 21.000479,7.5 V 7 c 0,0 0.02758,-0.6675034 -0.335938,-1.3945312 C 20.301028,4.8784409 19.167146,4 18.000479,4 h -3.84375 C 13.604389,3.4031745 12.85647,3 12.000479,3 Z"/>
</svg>

<svg width="22" height="22" version="1.1" xmlns="http://www.w3.org/2000/svg">
 <path d="M 10,3.5 C 8.6640633,3.5 7.692533,4.5125637 7.3183594,5.7441406 6.8180448,5.1208893 5.9709575,4.5 5,4.5 H 4 C 2.8333333,4.5 1.6994514,5.3784409 1.3359375,6.1054688 0.97242358,6.8324966 1,7.5 1,7.5 v 9 c 0,0 -0.0275764,0.667503 0.3359375,1.394531 C 1.6994514,18.621559 2.8333333,19.5 4,19.5 h 13 c 1.666667,0 3.050549,-1.128441 3.539062,-2.105469 C 21.027576,16.417503 21,15.5 21,15.5 v -8 C 21,7.5 21.02758,6.8324966 20.664062,6.1054688 20.300549,5.3784409 19.166667,4.5 18,4.5 H 14.15625 C 13.60391,3.9031745 12.855991,3.5 12,3.5 Z" style="opacity:.2"/>
 <path d="M 10,3 C 8.6640633,3 7.692533,4.0125637 7.3183594,5.2441406 6.8180448,4.6208893 5.9709575,4 5,4 H 4 C 2.8333333,4 1.6994514,4.8784409 1.3359375,5.6054688 0.97242358,6.3324966 1,7 1,7 v 9 C 1,16 0.9724236,16.667503 1.3359375,17.394531 1.6994514,18.121559 2.8333333,19 4,19 h 13 c 1.666667,0 3.050549,-1.128441 3.539062,-2.105469 C 21.027576,15.917503 21,15 21,15 V 7 C 21,7 21.027576,6.3324966 20.664062,5.6054688 20.300549,4.8784409 19.166667,4 18,4 H 14.15625 C 13.60391,3.4031745 12.855991,3 12,3 Z" style="fill:#b0b0b0"/>
 <path d="m10 5.5c-0.554 0-1 0.446-1 1v1c0 0.554 0.446 1 1 1h2c0.554 0 1-0.446 1-1v-1c0-0.554-0.446-1-1-1zm-6 1c-1 0-1 1-1 1v9s0 1 1 1h13c2 0 2-2 2-2v-8s0-1-1-1h-2v6c0 2-2 2-2 2h-7c-1 0-1-1-1-1v-6s0-1-1-1z" style="opacity:.2"/>
 <path d="m10 5c-0.554 0-1 0.446-1 1v1c0 0.554 0.446 1 1 1h2c0.554 0 1-0.446 1-1v-1c0-0.554-0.446-1-1-1h-2zm-6 1c-1 0-1 1-1 1v9s0 1 1 1h13c2 0 2-2 2-2v-8s0-1-1-1h-2v6c0 2-2 2-2 2h-7c-1 0-1-1-1-1v-6s0-1-1-1h-1z" style="fill:#2e56b2"/>
 <path d="M 10 3 C 8.6640633 3 7.692533 4.0125637 7.3183594 5.2441406 C 6.8180448 4.6208893 5.9709575 4 5 4 L 4 4 C 2.8333333 4 1.6994514 4.8784409 1.3359375 5.6054688 C 0.97242358 6.3324966 1 7 1 7 L 1 7.5 C 1 7.5 0.9724235 6.8324966 1.3359375 6.1054688 C 1.6994505 5.3784409 2.833333 4.5 4 4.5 L 5 4.5 C 5.970958 4.5 6.8180454 5.1208893 7.3183594 5.7441406 C 7.6925334 4.5125637 8.664063 3.5 10 3.5 L 12 3.5 C 12.855991 3.5 13.60391 3.9031745 14.15625 4.5 L 18 4.5 C 19.166667 4.5 20.300549 5.3784409 20.664062 6.1054688 C 21.02758 6.8324966 21 7.5 21 7.5 L 21 7 C 21 7 21.02758 6.3324966 20.664062 5.6054688 C 20.300549 4.8784409 19.166667 4 18 4 L 14.15625 4 C 13.60391 3.4031745 12.855991 3 12 3 L 10 3 z " style="fill:#ffffff;opacity:.2"/>
 <path d="m10 5c-0.554 0-1 0.446-1 1v0.5c0-0.554 0.446-1 1-1h2c0.554 0 1 0.446 1 1v-0.5c0-0.554-0.446-1-1-1h-2zm-6 1c-1 0-1 1-1 1v0.5s0-1 1-1h1c1 0 1 1 1 1v-0.5s0-1-1-1h-1zm12 0v0.5h2c1 0 1 1 1 1v-0.5s0-1-1-1h-2zm0 6c0 2-2 2-2 2h-7c-1 0-1-1-1-1v0.5s0 1 1 1h7s2 0 2-2v-0.5z" style="fill:#ffffff;opacity:.2"/>
</svg>
